icons/table-24.svg

<svg width="24" height="24" viewBox="0 0 24 24" fill="none" xmlns="http://www.w3.org/2000/svg">
<path fill-rule="evenodd" clip-rule="evenodd" d="M2 3.75C2 2.7835 2.7835 2 3.75 2H20.25C21.2165 2 22 2.7835 22 3.75V20.25C22 21.2165 21.2165 22 20.25 22H3.75C2.7835 22 2 21.2165 2 20.25V3.75ZM3.5 9V20.25C3.5 20.3881 3.61193 20.5 3.75 20.5H7.5L7.5 9H3.5ZM7.5 7.5H3.5V3.75C3.5 3.61193 3.61193 3.5 3.75 3.5H7.5V7.5ZM9 9L9 20.5H20.25C20.3881 20.5 20.5 20.3881 20.5 20.25V9H9ZM20.5 7.5H9V3.5H20.25C20.3881 3.5 20.5 3.61193 20.5 3.75V7.5Z" fill="#24292E"/>
</svg>

<svg xmlns="http://www.w3.org/2000/svg" width="24" height="24" viewBox="0 0 24 24"><path fill-rule="evenodd" d="M2 3.75C2 2.784 2.784 2 3.75 2h16.5c.966 0 1.75.784 1.75 1.75v16.5A1.75 1.75 0 0120.25 22H3.75A1.75 1.75 0 012 20.25V3.75zM3.5 9v11.25c0 .138.112.25.25.25H7.5V9h-4zm4-1.5h-4V3.75a.25.25 0 01.25-.25H7.5v4zM9 9v11.5h11.25a.25.25 0 00.25-.25V9H9zm11.5-1.5H9v-4h11.25a.25.25 0 01.25.25V7.5z"/></svg>
